storage/app/icons/phosphoricons/duotone/git-branch-duotone.svg

<svg xmlns="http://www.w3.org/2000/svg" fill="currentColor" viewBox="0 0 256 256"><path d="M224 64a24 24 0 1 1-24-24 24 24 0 0 1 24 24" opacity=".2"/><path d="M232 64a32 32 0 1 0-40 31v17a8 8 0 0 1-8 8H96a23.8 23.8 0 0 0-8 1.38V95a32 32 0 1 0-16 0v66a32 32 0 1 0 16 0v-17a8 8 0 0 1 8-8h88a24 24 0 0 0 24-24V95a32.06 32.06 0 0 0 24-31M64 64a16 16 0 1 1 16 16 16 16 0 0 1-16-16m32 128a16 16 0 1 1-16-16 16 16 0 0 1 16 16M200 80a16 16 0 1 1 16-16 16 16 0 0 1-16 16"/></svg>

<svg xmlns="http://www.w3.org/2000/svg" viewBox="0 0 256 256" fill="currentColor"><path d="M224,64a24,24,0,1,1-24-24A24,24,0,0,1,224,64Z" opacity="0.2"/><path d="M232,64a32,32,0,1,0-40,31v17a8,8,0,0,1-8,8H96a23.84,23.84,0,0,0-8,1.38V95a32,32,0,1,0-16,0v66a32,32,0,1,0,16,0V144a8,8,0,0,1,8-8h88a24,24,0,0,0,24-24V95A32.06,32.06,0,0,0,232,64ZM64,64A16,16,0,1,1,80,80,16,16,0,0,1,64,64ZM96,192a16,16,0,1,1-16-16A16,16,0,0,1,96,192ZM200,80a16,16,0,1,1,16-16A16,16,0,0,1,200,80Z"/></svg>
